X:1
T:Title
%%score { ( 1 3 ) | ( 2 4 ) }
L:1/8
Q:1/4=100
M:3/4
K:F
V:1 treble nm="Grand Piano"
V:3 treble 
V:2 bass 
V:4 bass 
V:1
 A2 A2 G2 | G2 F2 A2 | c2- [Ec]2 [CEB]2 | [CFA]6 | [CF]2 [B,CE]2 [A,CF]2 | [=B,FA]4 [B,FG]2 | %6
w: Hubert~P.~Main * *||||||
 [CEG]6 | [CFc]2 .[CFB]2 [CFA]2 | [FA]2 [EG]2 [CF]2 | [CB]4 [CFA]2 | [CEG]4 [CGB]2 | %11
w: |||||
 F2- [Fc]2 [CF]2 | [A,F]2 [CA]2 [B,CG]2 | [A,CF]6 |] %14
w: |||
V:2
 [F,CF]2 [F,CF]2 [F,A,_E]2 | [B,,B,]4 [F,C]2 | A,2 G,2 C,2 | F,6 | A,2 G,2 F,2 | D,4 G,2 | C,6 | %7
 A,2 z E F,2 | C,2 B,,2 A,,2 | z2 E2 F,,2 | C,4 E,2 | F,4 z2 | z2 F,2 C,2 | F,6 |] %14
V:3
 x6 | D4 z2 | F2 z2 z2 | x6 | x6 | x6 | x6 | x6 | C4 z2 | F2 z2 z2 | x6 | [CA]2 z2 z2 | x6 | x6 |] %14
V:4
 x6 | x6 | C,4 z2 | x6 | x6 | x6 | x6 | z2 G,2 z2 | x6 | G,,4 z2 | x6 | z2 A,2 A,,2 | C,4 z2 | %13
 x6 |] %14

